!!!COM: Johannes Brahms
!!!CNT: Deutscher
!!!TXO: Deutsche
!!!OTL: Abendda2mmerung
!!!OPS: Op. 49
!!!ONM: No. 5
!!!LYR: Schack
!!!ONB: Original key: E Major
!!!ENC: Ayako Kataoka
!!!EED: Leigh VanHandel
!!!YOR: C.F. Peters, Brahms Lieder fu2r eine Singstimme mit Klavierbegleitung, Band III, ausgabe fu2r tiefere Stimme
!!!ODT: 1867/
!!NB: Vocal melody and text only encoded.
**kern	**silbe
*clefG2	*
*k[f#c#]	*
*M3/4	*
*MM[adagio]	*
!! tempo indication: ruhig
=7	=7
4r	.
4r	.
{8a	{Sei
8a	will-
=8	=8
4dd	-kom-
4f#	-men,
[4ccn	Zwie-
=9	=9
8cc]	|
8a	-licht-
4f#	-stun-
4a}	-de!}
=10	=10
{8b	{Dich
8a	vor
4a	al-
4g	-len
=11	=11
8r	.
(4b	lieb-
8cc#)	|
(8dd	ich
8fn)	|
=12	=12
4e}	la2ngst,}
4r	.
{8e	{die
8e	du
=13	=13
4g	lin-
4e	-dernd
8dd	je-
8cc#	-de
=14	=14
4g	Wun-
4e}	-de,}
{8ee	{uns-
8cc#	-re
=15	=15
(4.dd	See-
8b)	|
(8a	-le
8g#)	|
=16	=16
2b	mild
4c#	um-
=17	=17
4d}	-fa2ngst.}
4r	.
4r	.
=20	=20
4r	.
4r	.
{8cc#	{Hin
8cc#	durch
=21	=21
4.cc#	dei-
8b	-ne
8a	Da2m-
8b	-mer-
=22	=22
4.cc#	-hel-
8b}	-le,}
{8a	{in
8cc#	den
=23	=23
8cc	Lu2f-
8b	-ten,
([4b	a
16b]	|
16a)	|
(16g#	bend-
16a)	|
=24	=24
4b}	-feucht,}
4r	.
{8cc#	{schwe-
8cc#	-ben
=25	=25
4.cc#	Bil-
8b	-der,
8a	die
8b	der
=26	=26
4.cc#	grel-
8b	-le
8a	Schein
8cc#	des
=27	=27
8dd	lau-
8b	-ten
(8a	Tags
8fn)	|
(8e	ge-
8d)	|
=28	=28
4a}	-scheucht}.
4r	.
4r	.
=32	=32
{4dd	{Tra2u-
4f#	-me
8cn	und
8b	Er-
=33	=33
8ccn	-in-
8a	-ne-
4f#	-run-
4a	-gen
=34	=34
8b	na-
8a	-hen
4.g	aus
8a	der
=35	=35
(4.b	Kin-
8cc#)	|
(8dd	-der-
8fn)	|
=36	=36
4e}	-zeit}
4r	.
{8e	{flu2-
8e	-stern
=37	=37
4.g	mit
8e	den
8dd	Gei-
8cc#	-ster-
=38	=38
4g	-zun-
4e}	-gen}
{8ee	{von
8cc#	ver-
=39	=39
(4.dd	-gang-
8b)	|
(8a	-ner
8g#)	|
=40	=40
2b	Se-
4c#	-lig-
=41	=41
4d}	-keit.}
4r	.
4r	.
=44	=44
4r	.
4r	.
{8d	{Und
8d	zu
=45	=45
*k[f#]	*
4.b	Ju-
8a	-gend-
8.f#	-lust
16g	Ge-
=46	=46
4ee	-nos-
4a	-sen
8a	keh-
8b	-ren
=47	=47
4.ccn	wir
8ee	ins
8.cc	Va-
16b	-ter-
=48	=48
8.a}	-haus;}
16r	.
{4cc	{Ar-
4b	-me,
=49	=49
4.b	die
8a#	uns
8.b	einst
16cc#	um-
=50	=50
4cc#	-schlos-
8dd#}	-sen,}
8r	.
{8ee	{brei-
8ccn	-ten
=51	=51
4.b	neu
8g	sich
8.b	nach
16a	uns
=52	=52
4g}	aus.}
4r	.
{8g	{Nach
8g	dem
=53	=53
4.b-	Tren-
8a	-nungs-
8.f#	-schmerz,
16g	dem
=54	=54
4ee-	lan-
4a}	-gen,}
{8a	{du2r-
8bn	-fen
=55	=55
4.cc	wir
8een	noch
8.cc	ein-
16b	-mal
=56	=56
8.a	nun
16r	.
4cc	de-
4b}	-nen,}
=57	=57
{4.b	{die
8a#	da-
8.b	-hin-
16cc#	-ge-
=58	=58
4cc#	-gan-
8dd#}	-gen,}
8r	.
{8ee	{am
8ccn	ge-
=59	=59
8b	-lieb-
8g	-ten
4.b	-Her-
8a	-zen
=60	=60
4g}	ruhn.}
4r	.
4r	.
=63	=63
4r	.
4r	.
{8a	{Und
8a	in-
=64	=64
*k[f#c#]	*
4dd	des
8r	.
8f#	zum
[4ccn	Au-
=65	=65
8cc#]	|
8a	-gen-
4f#	-li-
4a	-de
=66	=66
8b	sanft
8a	der
4a	Schlum-
4g	-mer
=67	=67
8r	.
(4b	nie-
8cc#)	|
(8dd	-der-
8fn)	|
=68	=68
4e}	-rinnt,}
4r	.
{8e	{sinkt
8e	auf
=69	=69
4.g	uns
8e	ein
8dd	sel-
8cc#	-ger
=70	=70
4g	Frie-
4e}	-de}
{8ee	aus
8cc#	dem
=71	=71
(4.dd	Land,
8b)	|
(8a	wo
8g#)	|
=72	=72
2b	Je-
4c#	-ne
=73	=73
4d}	sind.}
4r	.
4r	.
*-	*-
